X:6
T:Jingle Bells
C:Pierpont/Monday
M:4/4
K:D
L: 1/4
Q:1/4=200
!mf! vF F F2 | F F F2 | F A D>E| F2 z2 | vG G G G | G F F F |
|1 F E E F | E2 A2 :|2 A A G E | D2 z2 || \
K:G
!ff! z2 z2 |
!mf! vD B A G | D3 D/D/ | D B A G | E4 | vE c B A | F4 |
d d c A | B4 | vD B A G | D4 | D B A G | E4 |
vE c B A | d d d d | !4!e d c A | .G z Ld2 |: !mf! vB B B2 | B B B2 |
B d G>A | B4 | uc c c c | c B B B/B/ |1 B A A B | A2 d2 :|2
d d c A | G2 "^pizz." z2 || B2 B B | B2 B B | B2 B B | c2 c c |
c2 c c | d2 d d | d2 d d | d2 d d | B2 B B | B2 B B |
B2 B B | c2 c c | c2 c c | d2 "^arco" z vd/d/ | e d c A | .G z !f!Ld2 |: vB B B2 |
B B B2 | B d G>A | B4 | uc c c c | c B B B/B/ |1 B A A B | A2 d2 :|2
Ld2 Ld2 | Le2 Lf2 || vg4 | g4 | Lf2 La2 | Lg2 L.g z |]

% Same as above,  except with repeats made explicit,  and harmony
% typed in for Charlie Thompson

